COLOR/action 16/16/playlist_display-add-files.svg

<svg height="16" width="16" xmlns="http://www.w3.org/2000/svg"><path d="m13.339253.50251313c-.11535-.00705-.251138.00153-.411136.01585l-7.2265179 1.12772237c-.81528.083125-.9039353.4635999-.8967148.9378368v9.5426687c-.4143762-.272219-.8578466-.465977-1.4488114-.465977-.760949 0-1.2152327.291694-1.4899514.675462-.2746837.383786-.3661215.867357-.3661215 1.241281 0 .450936.1555082.931338.4894884 1.298093.333981.36672.847562.624532 1.5858629.62455.8337191 0 1.4188194-.232541 1.7503345-.687211.2610172-.357987.4066452-.837382.4581404-1.427292.00705-.0715.012325-.145649.01585-.221231.00528-.05988.00528-.101979.00528-.172239h.00351v-7.7218348c.02219-.6208864.5854004-.7126591.5854004-.7126591l5.8677584-.9162809c.563281-.1722385.563879.5247113.563879.5247113v6.9582625c-.414394-.272218-.857865-.465961-1.448811-.465961-.760986 0-1.215252.291679-1.4899535.675447-.2747008.383803-.3661563.867339-.3661563 1.241296 0 .450938.1555083.931339.4895058 1.298059.333999.366755.847545.624568 1.585865.624585.833717 0 1.418819-.232573 1.750351-.687229.261001-.357967.40661-.837383.458106-1.427273.007-.07167.01225-.145646.01584-.221249.0054-.05988.0054-.101978.0054-.172239h.0035v-10.5940622c.01231-.68729857-.140786-.86827247-.48757-.89278717z" fill="#ec3c50" fill-rule="evenodd"/><circle cx="12" cy="-12" fill="#45a925" r="4" transform="rotate(90)"/><rect fill="#f4f4f4" height=".888889" rx=".237037" ry=".296296" width="4.444444" x="9.777778" y="11.555554"/><rect fill="#f4f4f4" height="4.444444" rx=".296296" ry=".237037" width=".888889" x="11.555555" y="9.777777"/><g fill-rule="evenodd"><path d="m13.339844.50195312c-.11535-.00705-.252112.001305-.41211.015625l-7.2265621 1.12890628c-.81528.083125-.9037049.4632631-.8964844.9375v.5c-.00722-.4742369.081204-.854375.8964844-.9375l7.2265621-1.1289063c.159998-.01432.29676-.022675.41211-.015625h.002c.346784.024515.500591.2072327.488281.8945313v-.5c.012263-.68729859-.141544-.87001657-.488328-.89453128zm-9.9843752 11.15820288c-.7609491 0-1.2155157.292013-1.4902344.675782-.2746837.383785-.3652344.868263-.3652344 1.242187 0 .09976.00992.199686.025391.300781.02675-.338694.109479-.721105.3398438-1.042968.2747187-.383769.7292853-.675782 1.4902344-.675782.5909648 0 1.0348425.194578 1.4492187.466797v-.5c-.4143766-.272219-.8582543-.466797-1.4492191-.466797z" fill="#fff" opacity=".3"/><path d="m12.447266 3.1152344c-.05392-.00257-.115137.00386-.185547.025391l-5.8671878.9160152s-.5637475.092004-.5859374.7128906v.5c.0221899-.6208864.5859374-.7128906.5859374-.7128906l5.8671878-.9160156c.563281-.1722385.564453.5253906.564453.5253906v-.5s-.0014-.532767-.378906-.5507812zm-6.6425785 9.3769536c0 .07026-.0005794.111995-.00586.171874-.00352.07558-.00857.149204-.015625.220704-.051495.58991-.196014 1.069747-.4570312 1.427734-.3315145.45467-.9162803.6875-1.7499994.6875-.7383009-.000018-1.2519565-.25828-1.5859375-.625-.2600936-.285618-.4103843-.64022-.4648438-.996094-.0051462.06516-.0253906.138888-.0253906.199219 0 .450936.1562542.93012.4902344 1.296875.333981.36672.8476366.624982 1.5859375.625.8337191 0 1.4184849-.23283 1.75-.6875.2610172-.357987.405536-.837824.4570312-1.427734.00705-.0715.0121-.145122.015625-.220704.00528-.05988.00586-.101614.00586-.171874h.00391v-.5z" opacity=".2"/></g></svg>

<?xml version="1.0" encoding="UTF-8" standalone="no"?>
<!-- Created with Inkscape (http://www.inkscape.org/) -->

<svg
   xmlns:dc="http://purl.org/dc/elements/1.1/"
   xmlns:cc="http://creativecommons.org/ns#"
   xmlns:rdf="http://www.w3.org/1999/02/22-rdf-syntax-ns#"
   xmlns:svg="http://www.w3.org/2000/svg"
   xmlns="http://www.w3.org/2000/svg"
   xmlns:xlink="http://www.w3.org/1999/xlink"
   xmlns:sodipodi="http://sodipodi.sourceforge.net/DTD/sodipodi-0.dtd"
   xmlns:inkscape="http://www.inkscape.org/namespaces/inkscape"
   version="1.1"
   width="16"
   height="16"
   id="svg3916"
   sodipodi:docname="playlist_display-add-files.svg"
   inkscape:version="0.92.4 (5da689c313, 2019-01-14)">
  <metadata
     id="metadata44">
    <rdf:RDF>
      <cc:Work
         rdf:about="">
        <dc:format>image/svg+xml</dc:format>
        <dc:type
           rdf:resource="http://purl.org/dc/dcmitype/StillImage" />
        <dc:title />
      </cc:Work>
    </rdf:RDF>
  </metadata>
  <sodipodi:namedview
     pagecolor="#ffffff"
     bordercolor="#666666"
     borderopacity="1"
     objecttolerance="10"
     gridtolerance="10"
     guidetolerance="10"
     inkscape:pageopacity="0"
     inkscape:pageshadow="2"
     inkscape:window-width="1920"
     inkscape:window-height="1016"
     id="namedview42"
     showgrid="false"
     inkscape:zoom="52.437499"
     inkscape:cx="3.7950515"
     inkscape:cy="8.0000002"
     inkscape:window-x="0"
     inkscape:window-y="27"
     inkscape:window-maximized="1"
     inkscape:current-layer="svg3916" />
  <defs
     id="defs3918">
    <linearGradient
       x1="24.103895"
       y1="15.168831"
       x2="24.103895"
       y2="32.485161"
       id="linearGradient2536"
       xlink:href="#linearGradient3945"
       gradientUnits="userSpaceOnUse"
       gradientTransform="matrix(0.3280315,0,0,0.3257096,24.444958,-10.722212)" />
    <linearGradient
       id="linearGradient3945">
      <stop
         id="stop3947"
         style="stop-color:#ecf5b6;stop-opacity:1"
         offset="0" />
      <stop
         id="stop3949"
         style="stop-color:#9fba48;stop-opacity:1"
         offset="1" />
    </linearGradient>
    <linearGradient
       x1="18.03083"
       y1="16.407909"
       x2="20.054544"
       y2="24.627615"
       id="linearGradient2929"
       xlink:href="#linearGradient8265-821-176-38-919-66-249"
       gradientUnits="userSpaceOnUse"
       gradientTransform="matrix(0.2966887,0,0,0.3520695,1.8805021,2.118629)" />
    <linearGradient
       id="linearGradient8265-821-176-38-919-66-249">
      <stop
         id="stop2687"
         style="stop-color:#ffffff;stop-opacity:0.2"
         offset="0" />
      <stop
         id="stop2689"
         style="stop-color:#ffffff;stop-opacity:0"
         offset="1" />
    </linearGradient>
    <linearGradient
       x1="126.69791"
       y1="58.583481"
       x2="169.22964"
       y2="238.3999"
       id="linearGradient2932"
       xlink:href="#linearGradient2610"
       gradientUnits="userSpaceOnUse"
       gradientTransform="matrix(0.05489342,0.01385132,0.00257263,0.05248166,-0.71280094,-0.2674109)" />
    <linearGradient
       id="linearGradient2610">
      <stop
         id="stop2612"
         style="stop-color:#f0c178;stop-opacity:1"
         offset="0" />
      <stop
         id="stop2614"
         style="stop-color:#e18941;stop-opacity:1"
         offset="0.5" />
      <stop
         id="stop2616"
         style="stop-color:#ec4f18;stop-opacity:1"
         offset="1" />
    </linearGradient>
    <linearGradient
       x1="10.318256"
       y1="14.992862"
       x2="4.1760364"
       y2="4.0514131"
       id="linearGradient2934"
       xlink:href="#linearGradient2603"
       gradientUnits="userSpaceOnUse"
       gradientTransform="matrix(1.0083043,0,0,1.0006232,-8.2398292e-4,-0.0066209)" />
    <linearGradient
       id="linearGradient2603">
      <stop
         id="stop2605"
         style="stop-color:#bb2b12;stop-opacity:1"
         offset="0" />
      <stop
         id="stop2607"
         style="stop-color:#cd7233;stop-opacity:1"
         offset="1" />
    </linearGradient>
    <linearGradient
       x1="302.85715"
       y1="366.64789"
       x2="302.85715"
       y2="609.50507"
       id="linearGradient2915"
       xlink:href="#linearGradient5048"
       gradientUnits="userSpaceOnUse"
       gradientTransform="matrix(2.774389,0,0,1.969706,-1892.179,-872.8854)" />
    <linearGradient
       id="linearGradient5048">
      <stop
         id="stop5050"
         style="stop-color:#000000;stop-opacity:0"
         offset="0" />
      <stop
         id="stop5056"
         style="stop-color:#000000;stop-opacity:1"
         offset="0.5" />
      <stop
         id="stop5052"
         style="stop-color:#000000;stop-opacity:0"
         offset="1" />
    </linearGradient>
    <radialGradient
       cx="605.71429"
       cy="486.64789"
       r="117.14286"
       fx="605.71429"
       fy="486.64789"
       id="radialGradient2917"
       xlink:href="#linearGradient5060"
       gradientUnits="userSpaceOnUse"
       gradientTransform="matrix(2.774389,0,0,1.969706,-1891.633,-872.8854)" />
    <linearGradient
       id="linearGradient5060">
      <stop
         id="stop5062"
         style="stop-color:#000000;stop-opacity:1"
         offset="0" />
      <stop
         id="stop5064"
         style="stop-color:#000000;stop-opacity:0"
         offset="1" />
    </linearGradient>
    <radialGradient
       cx="605.71429"
       cy="486.64789"
       r="117.14286"
       fx="605.71429"
       fy="486.64789"
       id="radialGradient2919"
       xlink:href="#linearGradient5060"
       gradientUnits="userSpaceOnUse"
       gradientTransform="matrix(-2.774389,0,0,1.969706,112.7623,-872.8854)" />
    <clipPath
       clipPathUnits="userSpaceOnUse"
       id="clipPath983">
      <path
         sodipodi:nodetypes="scccssscsss"
         inkscape:connector-curvature="0"
         id="path985"
         d="m 325.09646,237 c -2.80769,0 -3.10979,0.28839 -3.09603,3.10176 V 244 v 3.89824 c -0.0138,2.81337 0.28834,3.10176 3.09603,3.10176 h 5.8075 C 333.71166,251 334,250.71165 334,247.89824 V 244 240.10176 C 334,237.28836 333.71165,237 330.90396,237 Z"
         style="color:#000000;display:inline;overflow:visible;visibility:visible;opacity:1;fill:#46a926;fill-opacity:1;fill-rule:nonzero;stroke:none;stroke-width:2;stroke-miterlimit:4;stroke-dasharray:none;stroke-opacity:1;marker:none;enable-background:accumulate" />
    </clipPath>
    <clipPath
       clipPathUnits="userSpaceOnUse"
       id="clipPath983-3">
      <path
         sodipodi:nodetypes="scccssscsss"
         inkscape:connector-curvature="0"
         id="path985-6"
         d="m 325.09646,237 c -2.80769,0 -3.10979,0.28839 -3.09603,3.10176 V 244 v 3.89824 c -0.0138,2.81337 0.28834,3.10176 3.09603,3.10176 h 5.8075 C 333.71166,251 334,250.71165 334,247.89824 V 244 240.10176 C 334,237.28836 333.71165,237 330.90396,237 Z"
         style="color:#000000;display:inline;overflow:visible;visibility:visible;opacity:1;fill:#46a926;fill-opacity:1;fill-rule:nonzero;stroke:none;stroke-width:2;stroke-miterlimit:4;stroke-dasharray:none;stroke-opacity:1;marker:none;enable-background:accumulate" />
    </clipPath>
  </defs>
  <path
     style="color:#000000;font-style:normal;font-variant:normal;font-weight:normal;font-stretch:normal;font-size:medium;line-height:normal;font-family:sans-serif;font-variant-ligatures:normal;font-variant-position:normal;font-variant-caps:normal;font-variant-numeric:normal;font-variant-alternates:normal;font-feature-settings:normal;text-indent:0;text-align:start;text-decoration:none;text-decoration-line:none;text-decoration-style:solid;text-decoration-color:#000000;letter-spacing:normal;word-spacing:normal;text-transform:none;writing-mode:lr-tb;direction:ltr;text-orientation:mixed;dominant-baseline:auto;baseline-shift:baseline;text-anchor:start;white-space:normal;shape-padding:0;clip-rule:nonzero;display:inline;overflow:visible;visibility:visible;opacity:1;isolation:auto;mix-blend-mode:normal;color-interpolation:sRGB;color-interpolation-filters:linearRGB;solid-color:#000000;solid-opacity:1;vector-effect:none;fill:#ec3c50;fill-opacity:1;fill-rule:evenodd;stroke:none;stroke-width:1.00243056px;stroke-linecap:butt;stroke-linejoin:round;stroke-miterlimit:4;stroke-dasharray:none;stroke-dashoffset:0;stroke-opacity:1;color-rendering:auto;image-rendering:auto;shape-rendering:auto;text-rendering:auto;enable-background:accumulate"
     d="m 13.339253,0.50251313 c -0.11535,-0.00705 -0.251138,0.00153 -0.411136,0.01585 L 5.7015991,1.6460855 C 4.8863191,1.7292105 4.7976638,2.1096854 4.8048843,2.5839223 V 12.126591 C 4.3905081,11.854372 3.9470377,11.660614 3.3560729,11.660614 c -0.760949,0 -1.2152327,0.291694 -1.4899514,0.675462 C 1.5914378,12.719862 1.5,13.203433 1.5,13.577357 c 0,0.450936 0.1555082,0.931338 0.4894884,1.298093 0.333981,0.36672 0.847562,0.624532 1.5858629,0.62455 0.8337191,0 1.4188194,-0.232541 1.7503345,-0.687211 0.2610172,-0.357987 0.4066452,-0.837382 0.4581404,-1.427292 0.00705,-0.0715 0.012325,-0.145649 0.01585,-0.221231 0.00528,-0.05988 0.00528,-0.101979 0.00528,-0.172239 h 0.00351 V 5.2701922 C 5.8306562,4.6493058 6.3938666,4.5575331 6.3938666,4.5575331 L 12.261625,3.6412522 c 0.563281,-0.1722385 0.563879,0.5247113 0.563879,0.5247113 v 6.9582625 c -0.414394,-0.272218 -0.857865,-0.465961 -1.448811,-0.465961 -0.760986,0 -1.215252,0.291679 -1.4899535,0.675447 -0.2747008,0.383803 -0.3661563,0.867339 -0.3661563,1.241296 0,0.450938 0.1555083,0.931339 0.4895058,1.298059 0.333999,0.366755 0.847545,0.624568 1.585865,0.624585 0.833717,0 1.418819,-0.232573 1.750351,-0.687229 0.261001,-0.357967 0.40661,-0.837383 0.458106,-1.427273 0.007,-0.07167 0.01225,-0.145646 0.01584,-0.221249 0.0054,-0.05988 0.0054,-0.101978 0.0054,-0.172239 h 0.0035 V 1.3955998 c 0.01231,-0.68729857 -0.140786,-0.86827247 -0.48757,-0.89278717 z"
     id="path1954-5"
     inkscape:connector-curvature="0" />
  <circle
     style="display:inline;opacity:1;fill:#45a925;fill-opacity:1;stroke:none;stroke-width:0.1111111;stroke-linecap:round;stroke-linejoin:round;stroke-miterlimit:4;stroke-dasharray:none;stroke-dashoffset:0;stroke-opacity:1;enable-background:new"
     id="path4980-6-2-7-9-6"
     cx="12"
     cy="-12"
     transform="rotate(90)"
     r="4"
     inkscape:export-filename="/home/stuart/yaru/icons/Suru/16x16/legacy/document-new.png"
     inkscape:export-xdpi="96"
     inkscape:export-ydpi="96" />
  <rect
     style="display:inline;opacity:1;fill:#f4f4f4;fill-opacity:1;stroke:none;stroke-width:0.11851852;stroke-linecap:round;stroke-linejoin:round;stroke-miterlimit:4;stroke-dasharray:none;stroke-dashoffset:0;stroke-opacity:1;enable-background:new"
     id="rect9617-7-7-9-1-1"
     width="4.4444442"
     height="0.8888889"
     x="9.7777777"
     y="11.555554"
     rx="0.23703705"
     ry="0.29629633"
     inkscape:export-filename="/home/stuart/yaru/icons/Suru/16x16/legacy/document-new.png"
     inkscape:export-xdpi="96"
     inkscape:export-ydpi="96" />
  <rect
     style="display:inline;opacity:1;fill:#f4f4f4;fill-opacity:1;stroke:none;stroke-width:0.11851852;stroke-linecap:round;stroke-linejoin:round;stroke-miterlimit:4;stroke-dasharray:none;stroke-dashoffset:0;stroke-opacity:1;enable-background:new"
     id="rect9619-5-0-2-2-2"
     width="0.8888889"
     height="4.4444442"
     x="11.555555"
     y="9.7777767"
     rx="0.29629633"
     ry="0.23703705"
     inkscape:export-filename="/home/stuart/yaru/icons/Suru/16x16/legacy/document-new.png"
     inkscape:export-xdpi="96"
     inkscape:export-ydpi="96" />
  <path
     style="color:#000000;font-style:normal;font-variant:normal;font-weight:normal;font-stretch:normal;font-size:medium;line-height:normal;font-family:sans-serif;font-variant-ligatures:normal;font-variant-position:normal;font-variant-caps:normal;font-variant-numeric:normal;font-variant-alternates:normal;font-feature-settings:normal;text-indent:0;text-align:start;text-decoration:none;text-decoration-line:none;text-decoration-style:solid;text-decoration-color:#000000;letter-spacing:normal;word-spacing:normal;text-transform:none;writing-mode:lr-tb;direction:ltr;text-orientation:mixed;dominant-baseline:auto;baseline-shift:baseline;text-anchor:start;white-space:normal;shape-padding:0;clip-rule:nonzero;display:inline;overflow:visible;visibility:visible;opacity:0.3;isolation:auto;mix-blend-mode:normal;color-interpolation:sRGB;color-interpolation-filters:linearRGB;solid-color:#000000;solid-opacity:1;vector-effect:none;fill:#ffffff;fill-opacity:1;fill-rule:evenodd;stroke:none;stroke-width:1.00243056px;stroke-linecap:butt;stroke-linejoin:round;stroke-miterlimit:4;stroke-dasharray:none;stroke-dashoffset:0;stroke-opacity:1;color-rendering:auto;image-rendering:auto;shape-rendering:auto;text-rendering:auto;enable-background:accumulate"
     d="m 13.339844,0.50195312 c -0.11535,-0.00705 -0.252112,0.001305 -0.41211,0.015625 L 5.7011719,1.6464844 c -0.81528,0.083125 -0.9037049,0.4632631 -0.8964844,0.9375 v 0.5 c -0.00722,-0.4742369 0.081204,-0.854375 0.8964844,-0.9375 L 12.927734,1.0175781 c 0.159998,-0.01432 0.29676,-0.022675 0.41211,-0.015625 h 0.002 c 0.346784,0.024515 0.500591,0.2072327 0.488281,0.8945313 v -0.5 C 13.842388,0.70918581 13.688581,0.52646783 13.341797,0.50195312 Z M 3.3554688,11.660156 c -0.7609491,0 -1.2155157,0.292013 -1.4902344,0.675782 C 1.5905507,12.719723 1.5,13.204201 1.5,13.578125 c 0,0.09976 0.00992,0.199686 0.025391,0.300781 0.02675,-0.338694 0.109479,-0.721105 0.3398438,-1.042968 0.2747187,-0.383769 0.7292853,-0.675782 1.4902344,-0.675782 0.5909648,0 1.0348425,0.194578 1.4492187,0.466797 v -0.5 C 4.3903113,11.854734 3.9464336,11.660156 3.3554688,11.660156 Z"
     id="path864"
     inkscape:connector-curvature="0"
     sodipodi:nodetypes="cccccccccccccscsccsccs" />
  <path
     style="color:#000000;font-style:normal;font-variant:normal;font-weight:normal;font-stretch:normal;font-size:medium;line-height:normal;font-family:sans-serif;font-variant-ligatures:normal;font-variant-position:normal;font-variant-caps:normal;font-variant-numeric:normal;font-variant-alternates:normal;font-feature-settings:normal;text-indent:0;text-align:start;text-decoration:none;text-decoration-line:none;text-decoration-style:solid;text-decoration-color:#000000;letter-spacing:normal;word-spacing:normal;text-transform:none;writing-mode:lr-tb;direction:ltr;text-orientation:mixed;dominant-baseline:auto;baseline-shift:baseline;text-anchor:start;white-space:normal;shape-padding:0;clip-rule:nonzero;display:inline;overflow:visible;visibility:visible;opacity:0.2;isolation:auto;mix-blend-mode:normal;color-interpolation:sRGB;color-interpolation-filters:linearRGB;solid-color:#000000;solid-opacity:1;vector-effect:none;fill:#000000;fill-opacity:1;fill-rule:evenodd;stroke:none;stroke-width:1.00243056px;stroke-linecap:butt;stroke-linejoin:round;stroke-miterlimit:4;stroke-dasharray:none;stroke-dashoffset:0;stroke-opacity:1;color-rendering:auto;image-rendering:auto;shape-rendering:auto;text-rendering:auto;enable-background:accumulate"
     d="m 12.447266,3.1152344 c -0.05392,-0.00257 -0.115137,0.00386 -0.185547,0.025391 L 6.3945312,4.0566406 c 0,0 -0.5637475,0.092004 -0.5859374,0.7128906 v 0.5 C 5.8307837,4.6486448 6.3945312,4.5566406 6.3945312,4.5566406 L 12.261719,3.640625 C 12.825,3.4683865 12.826172,4.1660156 12.826172,4.1660156 v -0.5 c 0,0 -0.0014,-0.532767 -0.378906,-0.5507812 z M 5.8046875,12.492188 c 0,0.07026 -5.794e-4,0.111995 -0.00586,0.171874 -0.00352,0.07558 -0.00857,0.149204 -0.015625,0.220704 -0.051495,0.58991 -0.196014,1.069747 -0.4570312,1.427734 C 4.9946568,14.76717 4.409891,15 3.5761719,15 2.837871,14.999982 2.3242154,14.74172 1.9902344,14.375 1.7301408,14.089382 1.5798501,13.73478 1.5253906,13.378906 1.5202444,13.444066 1.5,13.517794 1.5,13.578125 c 0,0.450936 0.1562542,0.93012 0.4902344,1.296875 0.333981,0.36672 0.8476366,0.624982 1.5859375,0.625 0.8337191,0 1.4184849,-0.23283 1.75,-0.6875 0.2610172,-0.357987 0.405536,-0.837824 0.4570312,-1.427734 0.00705,-0.0715 0.0121,-0.145122 0.015625,-0.220704 0.00528,-0.05988 0.00586,-0.101614 0.00586,-0.171874 h 0.00391 v -0.5 z"
     id="path869"
     inkscape:connector-curvature="0"
     sodipodi:nodetypes="sccccccccscccccccsccccccccc" />
</svg>
